X:1
T:No5. Mein Gott, mein Gott, warum hast du mich verlassen? 
L:1/8
Q:1/4=50
M:3/4
K:Ab
V:1 bass nm="Piano" snm="Pno."
V:1
"^Largo"!f! !wedge!F,,2 !wedge!F,2 !wedge!C,2 | (F,,2 !wedge!A,,2) z2 |!f! (C2 B,2 A,2) | %3
 (=E,2 F,2) z2 | D,6 | C,4 z2 | D4 z2 | D,4 z2 |!p! D z D z D z | C2 z2 (D2 | C2) z2 (D,2 | %11
 C,2) z2 z2 | z6 | z6 |!f! !wedge!A,,2 !wedge!A,2 !wedge!E,2 | (A,,2 !wedge!E,2) z2 | %16
!f! !wedge!E,2 !wedge!D,2 !wedge!C,2 | (G,,2 !wedge!A,,2) C,2 | D,6 | E,6 | F,6 | G,6 | A,6 | %23
 !wedge!A,2 !wedge!G,2 z2 | F,4 E,2 | !wedge!D,2 !wedge!C,2 z2 | z2 z2!p! (_C2 | C2) (B,A,_G,F,) | %28
 (E,>F,) =G,2 A,2 | D,2 z2 z2 | (E,6 | F,2) z2 z2 |!f! !wedge!G,,2 !wedge!G,2 !wedge!G,2 | %33
 (D,2 !wedge!C,2) z2 |!f! !wedge!D,2 !wedge!D2 !wedge!C2 | (G,2 !wedge!A,2) z2 |!p! D,2 z2 z2 | %37
 z6 | D,2 z2 z2 | z6 | z6 | z6 | E,2 z2 (_F,2 | F,2) (E,D,C,B,,) | (A,,>B,,) !wedge!C, z (_G,2 | %45
 G,2) (F,E,D,C,) | (B,,>C,) !wedge!D, z z2 | (E4 E)D | CB, A,>B, C z | z6 | E,2 z2 z2 | E,2 z2 z2 | %52
 A,2 z2 z2 | E,2 z2 z2 | C,2 z2 z2 |1 C,2 z4 :|2 A,6 ||"_cresc." _G,6 | D,6 |!f! D,6 | D,6 | %61
!>(! D,2 D,2!p! D,2!>)! | D,2 z2 z2 |!ff! !wedge!_G,,2 !wedge!G,2 !wedge!D,2 | %64
 (_G,,2 !wedge!D,2) z2 |!f! (D,2 _C,2 B,,2) | (F,,2 !wedge!_G,,2) z2 | z6 | z6 | z6 | z6 | z6 | %72
 z6 | z6 | z z/!p! (B,,/!wedge!C,) z z2 | z z/ (B,,/!wedge!C,) z z2 | z z/ (B,,/!wedge!C,) z z2 | %77
 z6 | z z/!p! (D/!wedge!C) z/ (B,/!wedge!A,) z/!f! !wedge!G,/ | !wedge!F,2 !wedge!F,2 !wedge!C,2 | %80
 (F,,2 C,2) z2 |!f! (C2 B,2 A,2) | (=E,2 !wedge!F,2) A,,2 | B,,6 | C,4 =E,2 | F,4 (A,2 | %86
 A,2) G,F,=E,=D, | C,2 z!ff! !wedge!C,!wedge!C,!wedge!C, | C,2 z !wedge!C,!wedge!C,!wedge!C, | %89
 C,2 z2 z2 | z6 |!p! F, z A, z =E, z | F, z C, z z2 |!f! F,2 A,2 =E,2 | F,2 C,2 z2 |!p! D,2 z4 | %96
 z6 | B,,2 z2 z2 | z6 | B,,2 z2 z2 | A,,2 z2 z2 | z6 | z6 | z6 | z6 | C,2 z2 (D,2 | %106
 D,2) C,B,,A,,G,, | (F,,>G,,) A,, z (_G,2 | G,2) (F,E,D,C,) | (B,,>C,) !wedge!D, z z2 | z6 | z6 | %112
!p! C,2 z2 z2 | C,2 z2 z2 | F,2 z2 z2 | C,2 z2 z2 | D,2 z2 z2 | z6 | z6 |!p! B,, z =B,, z C, z | %120
 D,2 z2 (D2 | D2)!p! CB,A,G, | (F,>G,) !wedge!A, z z2 | z6 | C,2 z2 z2 | F,2 z2 z2 | C,2 z2 z2 | %127
 F,2 z2 C,2 | F,2 z2!pp! C,2 | F, z C, z A,, z | F,,2 z2 z2 |] %131

